wp-content/themes/underscores-seed/images/facebook.svg

<?xml version="1.0" encoding="utf-8"?>
<!-- Generator: Adobe Illustrator 21.1.0, SVG Export Plug-In . SVG Version: 6.00 Build 0)  -->
<svg version="1.1" id="Layer_1" xmlns="http://www.w3.org/2000/svg" xmlns:xlink="http://www.w3.org/1999/xlink" x="0px" y="0px"
	 viewBox="0 0 4.7880001 10.1303997" enable-background="new 0 0 4.7880001 10.1303997" xml:space="preserve">
<g id="GgDxI0_1_">
	<g>
		<path fill="#847C77" d="M1.0145236,7.5832043c0-0.6628442-0.0156198-1.3262053,0.006207-1.9883294
			c0.0119559-0.3627152-0.1158667-0.5201106-0.4788814-0.4751863c-0.3972519,0.049159-0.5784847-0.1173086-0.5350364-0.5250683
			C0.0230523,4.4422169,0.0090572,4.286603,0.0090636,4.1324549c0.0000318-0.7619147-0.0147974-0.9096091,0.7234792-0.9096091
			c0.3569835,0,0.3376026-0.2417696,0.3197886-0.3681781C1.0183971,2.6138663,1.0124323,2.4417584,1.015751,2.195163
			c0.0181389-1.3476804,0.7145612-2.0966122,2.0526533-2.1828353C3.482893-0.0143805,3.9005127,0.0101171,4.3166246,0.0050804
			c0.2823806-0.0034218,0.4366698,0.1167737,0.4316192,0.41081C4.7471862,0.4774845,4.7508073,0.5391534,4.751904,0.6007941
			c0.0204096,1.1489215,0.0209403,1.1550536-1.11796,1.2557869c-0.304704,0.0269511-0.4504275,0.161719-0.4453442,0.4644028
			c0.0010347,0.0616097-0.0021133,0.1232843-0.0029886,0.1849334C3.1751904,3.2393126,3.1752608,3.2384331,3.9248197,3.2384331
			c1.0921218,0,0.8367474,0.2896066,0.8367474,1.1908562c0,0.6359105-0.1586308,0.6960654-1.0469394,0.6827397
			C3.3137784,5.1060166,3.1719522,5.2328835,3.1780703,5.6407843c0.0196486,1.3099771-0.0038679,2.6205807,0.0130436,3.9306345
			c0.0053923,0.4177265-0.1345549,0.5883036-0.5631473,0.5553894C2.229486,10.0962067,1.8266898,10.111289,1.4261672,10.121273
			c-0.2931689,0.007309-0.4168434-0.1143351-0.4127355-0.4108534c0.0098214-0.708951,0.0031712-1.418128,0.0031712-2.1272154
			C1.0159099,7.5832043,1.0152167,7.5832043,1.0145236,7.5832043z"/>
	</g>
</g>
</svg>

<svg xmlns="http://www.w3.org/2000/svg" viewBox="0 0 4.79 10.13"><defs><style>.cls-1{fill:#847c77;}</style></defs><title>Asset 2</title><g id="Layer_2" data-name="Layer 2"><g id="Layer_1-2" data-name="Layer 1"><g id="GgDxI0"><path class="cls-1" d="M1,7.58c0-.66,0-1.33,0-2C1,5.23.9,5.08.54,5.12S0,5,0,4.59a4.39,4.39,0,0,0,0-.46c0-.76,0-.91.72-.91.36,0,.34-.24.32-.37A3.88,3.88,0,0,1,1,2.2,2,2,0,0,1,3.07,0c.41,0,.83,0,1.25,0s.44.12.43.41c0,.06,0,.12,0,.18,0,1.15,0,1.16-1.12,1.26-.3,0-.45.16-.45.46,0,.06,0,.12,0,.18,0,.73,0,.73.74.73,1.09,0,.84.29.84,1.19,0,.64-.16.7-1,.68-.4,0-.54.12-.54.53,0,1.31,0,2.62,0,3.93,0,.42-.13.59-.56.56a11.87,11.87,0,0,0-1.2,0C1.13,10.13,1,10,1,9.71,1,9,1,8.29,1,7.58Z"/></g></g></g></svg>
